meters/img/logo.svg

<svg width="185" height="60" viewBox="0 0 185 60" fill="none" xmlns="http://www.w3.org/2000/svg">
<g clip-path="url(#clip0_3001_4729)">
<path fill-rule="evenodd" clip-rule="evenodd" d="M41.8301 28.2415V9.70224C41.8301 9.38056 41.8402 8.76736 41.7243 8.45825C41.3591 7.4907 40.5152 7.27206 39.3187 7.59876C39.165 7.64149 38.5151 7.9883 38.3766 8.06369L21.071 17.5457L3.76547 8.06369C3.62692 7.9883 2.97702 7.64149 2.82336 7.59876C1.62683 7.27206 0.782964 7.49322 0.417709 8.45825C0.299316 8.76988 0.311911 9.38307 0.311911 9.70224V28.2415V41.8047L21.071 52.5081L41.8301 41.8047V28.2415ZM0.31695 28.244L21.071 17.5431L41.8251 28.244L21.071 38.9473L0.31695 28.244Z" fill="#F1F2F1"/>
<path d="M84.7816 7.45532V29.6587H81.0434V8.639L82.2601 8.69932L71.9045 29.6587H67.7204L57.3648 8.72947L58.5815 8.66916V29.6587H54.8433V7.45532H60.836L70.8062 27.9699H68.8464L78.7864 7.45532H84.7816Z" fill="#F1F2F1"/>
<path d="M93.7216 18.7239V28.3868L91.1295 26.2808H108.4V29.6559H89.9834V18.5555V7.45508H108.251V10.8302H91.1295L93.7216 8.60609V18.7239ZM107.541 16.9295V20.1865H91.9936V16.9295H107.541Z" fill="#F1F2F1"/>
<path d="M110.062 7.45508H132.376V10.888H110.062V7.45508ZM119.262 9.26201H123.179V29.6584H119.262V9.26201Z" fill="#F1F2F1"/>
<path d="M147.125 7.45514C148.787 7.45514 150.225 7.7517 151.442 8.34228C152.656 8.93537 153.598 9.75968 154.261 10.8152C154.923 11.8707 155.253 13.0895 155.253 14.4718C155.253 15.854 154.923 17.0728 154.261 18.1283C153.598 19.1838 152.659 20.0081 151.442 20.6012C150.225 21.1943 148.785 21.4884 147.125 21.4884H137.124V18.1133H146.976C148.321 18.1133 149.374 17.7866 150.135 17.1357C150.896 16.4848 151.276 15.5976 151.276 14.4718C151.276 13.3459 150.896 12.4588 150.135 11.8079C149.374 11.157 148.321 10.8303 146.976 10.8303H137.512L139.263 8.87506V29.656H135.346V7.45264H147.125V7.45514Z" fill="#F1F2F1"/>
<path d="M158.458 29.6584V7.45508H162.375V28.236L160.624 26.4894H169.939C171.304 26.4894 172.383 26.1376 173.174 25.4389C173.965 24.7378 174.36 23.8054 174.36 22.6418C174.36 21.4581 173.965 20.5157 173.174 19.8146C172.383 19.1134 171.304 18.7641 169.939 18.7641H160.236V15.5976H170.118C171.798 15.5976 173.254 15.8941 174.481 16.4847C175.708 17.0778 176.657 17.9021 177.33 18.9576C178.002 20.0131 178.34 21.242 178.34 22.6443C178.34 24.0265 178.002 25.2454 177.33 26.3009C176.657 27.3564 175.708 28.1807 174.481 28.7738C173.254 29.3669 171.801 29.6609 170.118 29.6609H158.458V29.6584ZM180.773 7.45508H184.69V29.6584H180.773V7.45508Z" fill="#F1F2F1"/>
<path d="M54.8433 40.0327H60.3145V41.4778H56.4202V48.9819H54.8433V40.0327Z" fill="#F1F2F1"/>
<path d="M63.4404 48.9792H61.9038V40.03H65.4783C67.2718 40.03 68.5011 41.2062 68.5011 42.9578C68.5011 44.722 67.2718 45.8856 65.4783 45.8856H63.4404V48.9792ZM63.4404 41.4374V44.4808H65.3876C66.3095 44.4808 66.9242 43.855 66.9242 42.9603C66.9242 42.0657 66.3095 41.4399 65.3876 41.4399H63.4404V41.4374Z" fill="#F1F2F1"/>
<path d="M73.1011 44.7094L75.0483 40.03H76.7386L72.7787 48.9792H71.1766L72.3555 46.3329L69.2798 40.03H71.0103L73.1011 44.7094Z" fill="#F1F2F1"/>
<path d="M78.0611 40.0327H85.4544V48.9819H83.8775V41.4778H79.6229V48.9819H78.0586V40.0327H78.0611Z" fill="#F1F2F1"/>
<path d="M87.5826 40.0327H94.9759V48.9819H93.399V41.4778H89.1444V48.9819H87.5801V40.0327H87.5826Z" fill="#F1F2F1"/>
<path d="M99.5631 40.0327H101.241L104.495 48.9819H102.818L102.112 46.8985H98.6538L97.9485 48.9819H96.3086L99.5631 40.0327ZM100.384 41.822L99.1299 45.5289H101.641L100.384 41.822Z" fill="#F1F2F1"/>
<path d="M113.314 44.2774L116.337 48.9819H114.491L111.979 44.9936H110.775V48.9819H109.148V40.0327H110.775V43.6114H112.03L114.516 40.0327H116.322L113.314 44.2774Z" fill="#F1F2F1"/>
<path d="M117.299 44.5061C117.299 41.8095 119.234 39.8267 121.949 39.8267C124.64 39.8267 126.574 41.807 126.574 44.5061C126.574 47.2052 124.64 49.1855 121.949 49.1855C119.234 49.1855 117.299 47.2026 117.299 44.5061ZM124.947 44.4935C124.947 42.6514 123.718 41.322 121.962 41.322C120.156 41.322 118.911 42.6514 118.911 44.4935C118.911 46.3582 120.153 47.6902 121.962 47.6902C123.718 47.6902 124.947 46.3608 124.947 44.4935Z" fill="#F1F2F1"/>
<path d="M133.111 45.8479L135.814 40.03H137.814V48.9792H136.303V42.229L133.6 47.8533H132.587L129.872 42.229V48.9792H128.373V40.03H130.411L133.111 45.8479Z" fill="#F1F2F1"/>
<path d="M140.006 40.0327H147.399V48.9819H145.822V41.4778H141.57V48.9819H140.006V40.0327Z" fill="#F1F2F1"/>
<path d="M151.986 40.0327H153.664L156.918 48.9819H155.241L154.535 46.8985H151.077L150.371 48.9819H148.731L151.986 40.0327ZM152.807 41.822L151.553 45.5289H154.064L152.807 41.822Z" fill="#F1F2F1"/>
<path d="M158.253 40.0327H159.83V43.5234H163.982V40.0327H165.543V48.9819H163.982V44.9559H159.83V48.9819H158.253V40.0327Z" fill="#F1F2F1"/>
<path d="M173.554 48.9792V42.42L169.378 48.9792H167.662V40.03H169.239V46.5893L173.403 40.03H175.118V48.9792H173.554Z" fill="#F1F2F1"/>
<path d="M183.126 48.9793V42.4201L178.949 48.9793H177.234V40.0301H178.811V46.5894L182.975 40.0301H184.69V48.9793H183.126ZM178.398 37.0144H179.718C179.781 37.5648 180.231 37.9468 180.959 37.9468C181.69 37.9468 182.151 37.5623 182.229 37.0144H183.536C183.395 38.2408 182.448 39.0098 180.959 39.0098C179.486 39.0098 178.551 38.2433 178.398 37.0144Z" fill="#F1F2F1"/>
</g>
<defs>
<clipPath id="clip0_3001_4729">
<rect width="185" height="45" fill="white" transform="translate(0 7.5)"/>
</clipPath>
</defs>
</svg>

<svg width="185" height="60" fill="none" xmlns="http://www.w3.org/2000/svg"><g clip-path="url(#a)" fill="#F1F2F1"><path fill-rule="evenodd" clip-rule="evenodd" d="M41.83 28.241V9.702c0-.321.01-.935-.106-1.244-.365-.967-1.209-1.186-2.405-.86-.154.043-.804.39-.942.466L21.07 17.546 3.765 8.064c-.138-.076-.788-.423-.942-.465-1.196-.327-2.04-.106-2.405.86-.119.31-.106.924-.106 1.243v32.103L21.07 52.508l20.76-10.703V28.24Zm-41.513.003 20.754-10.7 20.754 10.7-20.754 10.703L.317 28.244Z"/><path d="M84.782 7.455V29.66h-3.739V8.639l1.217.06-10.356 20.96H67.72L57.365 8.729l1.216-.06v20.99h-3.738V7.455h5.993l9.97 20.515h-1.96l9.94-20.515h5.996ZM93.722 18.724v9.663l-2.593-2.106H108.4v3.375H89.983v-22.2h18.268v3.374H91.129l2.593-2.224v10.118Zm13.819-1.794v3.256H91.994V16.93h15.547ZM110.062 7.455h22.314v3.433h-22.314V7.455Zm9.2 1.807h3.917v20.396h-3.917V9.262ZM147.125 7.455c1.662 0 3.1.297 4.317.887 1.214.593 2.156 1.418 2.819 2.473.662 1.056.992 2.274.992 3.657 0 1.382-.33 2.6-.992 3.656-.663 1.056-1.602 1.88-2.819 2.473-1.217.593-2.657.887-4.317.887h-10.001v-3.375h9.852c1.345 0 2.398-.326 3.159-.977.761-.651 1.141-1.538 1.141-2.664 0-1.126-.38-2.013-1.141-2.664-.761-.651-1.814-.978-3.159-.978h-9.464l1.751-1.955v20.781h-3.917V7.453h11.779v.002ZM158.458 29.658V7.455h3.917v20.781l-1.751-1.747h9.315c1.365 0 2.444-.351 3.235-1.05.791-.701 1.186-1.634 1.186-2.797 0-1.184-.395-2.126-1.186-2.827-.791-.702-1.87-1.05-3.235-1.05h-9.703v-3.167h9.882c1.68 0 3.136.296 4.363.887 1.227.593 2.176 1.417 2.849 2.473.672 1.055 1.01 2.284 1.01 3.686 0 1.383-.338 2.601-1.01 3.657-.673 1.055-1.622 1.88-2.849 2.473s-2.68.887-4.363.887h-11.66v-.003Zm22.315-22.203h3.917v22.203h-3.917V7.455ZM54.843 40.033h5.471v1.445H56.42v7.504h-1.577v-8.95ZM63.44 48.98h-1.536v-8.95h3.574c1.794 0 3.023 1.176 3.023 2.928 0 1.764-1.23 2.928-3.023 2.928H63.44v3.093Zm0-7.543v3.044h1.948c.921 0 1.536-.626 1.536-1.52 0-.895-.615-1.521-1.536-1.521H63.44v-.003ZM73.101 44.71l1.947-4.68h1.69l-3.96 8.95h-1.601l1.178-2.647-3.075-6.303h1.73l2.091 4.68ZM78.061 40.033h7.393v8.949h-1.576v-7.504h-4.255v7.504h-1.564v-8.95h.002ZM87.583 40.033h7.393v8.949h-1.577v-7.504h-4.255v7.504H87.58v-8.95h.003ZM99.563 40.033h1.678l3.254 8.949h-1.677l-.706-2.084h-3.458l-.706 2.084h-1.64l3.255-8.95Zm.821 1.789-1.254 3.707h2.511l-1.257-3.707ZM113.314 44.277l3.023 4.705h-1.846l-2.512-3.988h-1.204v3.988h-1.627v-8.95h1.627v3.58h1.255l2.486-3.58h1.806l-3.008 4.245ZM117.299 44.506c0-2.697 1.935-4.68 4.65-4.68 2.691 0 4.625 1.981 4.625 4.68 0 2.7-1.934 4.68-4.625 4.68-2.715 0-4.65-1.983-4.65-4.68Zm7.648-.013c0-1.842-1.229-3.171-2.985-3.171-1.806 0-3.051 1.33-3.051 3.171 0 1.865 1.242 3.197 3.051 3.197 1.756 0 2.985-1.33 2.985-3.197ZM133.111 45.848l2.703-5.818h2v8.95h-1.511v-6.751l-2.703 5.624h-1.013l-2.715-5.624v6.75h-1.499V40.03h2.038l2.7 5.818ZM140.006 40.033h7.393v8.949h-1.577v-7.504h-4.252v7.504h-1.564v-8.95ZM151.986 40.033h1.678l3.254 8.949h-1.677l-.706-2.084h-3.458l-.706 2.084h-1.64l3.255-8.95Zm.821 1.789-1.254 3.707h2.511l-1.257-3.707ZM158.253 40.033h1.577v3.49h4.152v-3.49h1.561v8.949h-1.561v-4.026h-4.152v4.026h-1.577v-8.95ZM173.554 48.98v-6.56l-4.176 6.56h-1.716v-8.95h1.577v6.56l4.164-6.56h1.715v8.95h-1.564ZM183.126 48.98v-6.56l-4.177 6.56h-1.715v-8.95h1.577v6.56l4.164-6.56h1.715v8.95h-1.564Zm-4.728-11.966h1.32c.063.55.513.933 1.241.933.731 0 1.192-.385 1.27-.933h1.307c-.141 1.227-1.088 1.996-2.577 1.996-1.473 0-2.408-.767-2.561-1.996Z"/></g><defs><clipPath id="a"><path fill="#fff" transform="translate(0 7.5)" d="M0 0h185v45H0z"/></clipPath></defs></svg>
